X:592
T:Miss Graham
B:Kerr's Merry Melodies Bk 3
Z:Nigel Gatherer
L:1/8
M:4/4
K:D
F | D2 FD A2 FA | BdAF AFEF | D2 FD A2 FA | BdAF E3 :|
A | dfef  d2 Ad | BdAd fede | faef  d2 Ad | BdAF E3
A | dfef  d2 Ad | BdAd fede | faef  deBd  | AFdF E3 |]
<end>
<start>
